app/dist/common/images/mears-plc.svg

<svg height="18" viewBox="0 0 18 18" width="18" xmlns="http://www.w3.org/2000/svg"><path d="m0 0h18v18h-18z" fill="#f0f3fa"/><path d="m4 5h10v8h-10zm5.83 2h1.17v4h-1v-2.14l-.79 2.1v.04h-.42l-.01-.04-.78-2.1v2.14h-1v-4h1.16l.02.04.82 2.28.82-2.28z" fill="#db042c" fill-rule="evenodd"/></svg>

<!-- by TradingView --><svg width="18" height="18" viewBox="0 0 18 18" xmlns="http://www.w3.org/2000/svg"><path fill="#F0F3FA" d="M0 0h18v18H0z"/><path fill-rule="evenodd" d="M4 5h10v8H4V5Zm5.83 2H11v4h-1V8.86l-.79 2.1V11h-.42l-.01-.04L8 8.86V11H7V7h1.16l.02.04L9 9.32l.82-2.28.01-.04Z" fill="#DB042C"/></svg>
